Origami/48x48/apps/chrome-store.svg

<svg width="48" height="48" version="1" xmlns="http://www.w3.org/2000/svg">
 <path d="m17 4-2 2v4h-12v30c0 1.108 0.892 2 2 2h36c1.108 0 2-0.892 2-2v-30h-12v-4l-2-2zm0 2h12v4h-12z" fill="#ccc"/>
 <path d="m17 6v1h12v-1h-12zm-14 34v1c0 1.108 0.892 2 2 2h36c1.108 0 2-0.892 2-2v-1c0 1.108-0.892 2-2 2h-36c-1.108 0-2-0.892-2-2z" opacity=".2"/>
 <path d="m17 4l-2 2v1l2-2h12l2 2v-1l-2-2h-12zm-14 6v1h12v-1h-12zm14 0v1h12v-1h-12zm14 0v1h12v-1h-12z" fill="#fff" opacity=".2"/>
 <path d="m22.998047 21.978516c-7.0164 0-13.15075 3.59405-16.71875 9.03125-0.0818208 5.287422 2.0778571 8.33372 4.6269531 10.990234h3.09375c-1.8e-5 -0.007294-0.001953-0.014185-0.001953-0.021484 0-4.986 4.0449-6.4456 9-7l17.875-2c-3.281-6.5394-10.033-11-17.875-11z" style="fill:#dd4d3e"/>
 <path d="m6.2871094 31.054688c-1.8647506 2.833401-2.9585307 6.091114-3.2167969 9.445312 0.2219513 0.862993 0.9955223 1.5 1.9296875 1.5h7.605469l-6.3183596-10.945312z" style="fill:#109f5b"/>
 <path d="m40.912109 32.988281l-17.611328 0.00586c1.4502 0.0392 2.904506 0.414309 4.253907 1.193359 2.3076 1.3323 2.091162 3.964994 2.601562 6.371094 0.104814 0.494075 0.263996 0.972199 0.429688 1.441406h10.414062c1.024343 0 1.853646-0.765233 1.974609-1.755859-0.224226-2.524408-0.920912-4.989163-2.0625-7.25586z" style="fill:#ffce41"/>
 <path d="m22.998047 32.980469c-4.986 0-9 4.014-9 9 0 0.006618 0.001939 0.012916 0.001953 0.019531h17.998047c1.4e-5 -0.006583 0-0.012945 0-0.019531 0-4.986-4.014-9-9-9z" style="fill:#ffffff"/>
 <path d="m22.998047 34.480469c-4.155 0-7.5 3.345-7.5 7.5 0 0.006624 0.001936 0.012911 0.001953 0.019531h14.998047c1.7e-5 -0.006588 0-0.012939 0-0.019531 0-4.155-3.345-7.5-7.5-7.5z" style="fill:#4587f3"/>
</svg>

<svg xmlns="http://www.w3.org/2000/svg" width="48" height="48" version="1">
 <path fill="#ccc" d="m17 4-2 2v4h-12v30c0 1.108 0.892 2 2 2h36c1.108 0 2-0.892 2-2v-30h-12v-4l-2-2zm0 2h12v4h-12z"/>
 <path opacity=".2" d="m17 6v1h12v-1h-12zm-14 34v1c0 1.108 0.892 2 2 2h36c1.108 0 2-0.892 2-2v-1c0 1.108-0.892 2-2 2h-36c-1.108 0-2-0.892-2-2z"/>
 <path fill="#fff" opacity=".2" d="m17 4l-2 2v1l2-2h12l2 2v-1l-2-2h-12zm-14 6v1h12v-1h-12zm14 0v1h12v-1h-12zm14 0v1h12v-1h-12z"/>
 <path style="fill:#dd4d3e" d="M 22.998047 21.978516 C 15.981647 21.978516 9.8472969 25.572566 6.2792969 31.009766 C 6.1974761 36.297188 8.357154 39.343486 10.90625 42 L 14 42 C 13.999982 41.992706 13.998047 41.985815 13.998047 41.978516 C 13.998047 36.992516 18.042947 35.532916 22.998047 34.978516 L 40.873047 32.978516 C 37.592047 26.439116 30.840047 21.978516 22.998047 21.978516 z"/>
 <path style="fill:#109f5b" d="M 6.2871094 31.054688 C 4.4223588 33.888089 3.3285787 37.145802 3.0703125 40.5 C 3.2922638 41.362993 4.0658348 42 5 42 L 12.605469 42 L 6.2871094 31.054688 z"/>
 <path style="fill:#ffce41" d="M 40.912109 32.988281 L 23.300781 32.994141 C 24.750981 33.033341 26.205287 33.40845 27.554688 34.1875 C 29.862288 35.5198 29.64585 38.152494 30.15625 40.558594 C 30.261064 41.052669 30.420246 41.530793 30.585938 42 L 41 42 C 42.024343 42 42.853646 41.234767 42.974609 40.244141 C 42.750383 37.719733 42.053697 35.254978 40.912109 32.988281 z"/>
 <path style="fill:#ffffff" d="M 22.998047 32.980469 C 18.012047 32.980469 13.998047 36.994469 13.998047 41.980469 C 13.998047 41.987087 13.999986 41.993385 14 42 L 31.998047 42 C 31.998061 41.993417 31.998047 41.987055 31.998047 41.980469 C 31.998047 36.994469 27.984047 32.980469 22.998047 32.980469 z"/>
 <path style="fill:#4587f3" d="M 22.998047 34.480469 C 18.843047 34.480469 15.498047 37.825469 15.498047 41.980469 C 15.498047 41.987093 15.499983 41.99338 15.5 42 L 30.498047 42 C 30.498064 41.993412 30.498047 41.987061 30.498047 41.980469 C 30.498047 37.825469 27.153047 34.480469 22.998047 34.480469 z"/>
</svg>
